svgs/regular/head-side.svg

<svg xmlns="http://www.w3.org/2000/svg" viewBox="0 0 512 512"><!-- Font Awesome Pro 6.0.0-alpha2 by @fontawesome - https://fontawesome.com License - https://fontawesome.com/license (Commercial License) --><path d="M383.985 192C383.985 174.375 369.611 160 351.987 160S319.99 174.375 319.99 192S334.364 224 351.987 224S383.985 209.625 383.985 192ZM509.222 275C488.224 227.875 460.726 123.25 436.103 88.25C397.606 33.625 334.486 0 266.117 0H199.997C95.506 0 4.139 80.125 0.139 184.5C-2.111 244.375 23.137 298.125 64.009 334.875V488.001C64.009 501.255 74.753 512 88.007 512H88.007C101.261 512 112.005 501.256 112.005 488.003V313.375L96.006 299.125C49.135 257 33.011 187.375 63.884 126.625C89.257 76.75 143.127 48 198.997 48H266.117C318.113 48 366.984 73.375 396.856 115.875C408.105 131.75 424.854 181.5 437.228 217.875C443.727 237.25 450.102 255.75 456.226 272H399.981V384C399.981 392.837 392.817 400 383.981 400H303.989V488.001C303.989 501.255 314.733 512 327.987 512H327.987C341.241 512 351.985 501.256 351.985 488.003V448H383.982C419.325 448 447.977 419.349 447.977 384.005V320H479.974C503.097 320 518.596 296.125 509.222 275Z"/></svg>

<svg xmlns="http://www.w3.org/2000/svg" viewBox="0 0 512 512"><!-- Font Awesome Pro 5.15.1 by @fontawesome - https://fontawesome.com License - https://fontawesome.com/license (Commercial License) --><path d="M352 192c0-17.67-14.33-32-32-32s-32 14.33-32 32 14.33 32 32 32 32-14.33 32-32zm157.21 83c-20.94-47.12-48.44-151.73-73.08-186.75C397.68 33.6 334.56 0 266.09 0h-66.08C95.47 0 4.12 80.08.14 184.55-2.13 244.33 23.1 298.14 64 334.82V496c0 8.84 7.16 16 16 16h16c8.84 0 16-7.16 16-16V313.39l-15.95-14.31c-46.94-42.1-63.11-111.72-32.19-172.5C89.2 76.78 143.11 48 198.99 48h67.1c51.99 0 100.88 25.37 130.78 67.87 11.2 15.91 28.06 65.67 40.38 102 6.55 19.32 12.86 37.92 18.97 54.13H400v112c0 8.84-7.16 16-16 16h-80v96c0 8.84 7.16 16 16 16h16c8.84 0 16-7.16 16-16v-48h32c35.35 0 64-28.65 64-64v-64h31.96c23.16 0 38.65-23.84 29.25-45z"/></svg>
